X: 114
T: Vray dieu quel
%%abc-version 2.0
%%abcx-abcm2ps-target-version 5.9.1 (29 Sep 2008)
%%abc-creator hum2abc beta
%%abcx-conversion-date 2022/03/06 13:05:58
%%abc-copyright Copyright 2018, Kolb, Paul
%%abc-edited-by Zybina, Karina
%%humdrum-veritas 3115982925
%%humdrum-veritas-data 342354285
%%linebreak <none>
%%barnumbers 0
L: 1/4
M: 2/2
N: Derived from Gas0508.2-Vray_dieu_que.krn
%%staves {1 2}
V: 1 clef=treble
V: 2 clef=bass
K: C
[V:1] G,4 & z4 | 
[V:2] z4 & x4 | 
[V:1] G4 & G,2G,2 | 
[V:2] z4 & x4 | 
[V:1] G2d2 & D2D2- | 
[V:2] G,4 | 
[V:1] d2d2 & DEF2 | 
[V:2] G,2D2 | 
[V:1] d3c & G2F2 | 
[V:2] D2D2 & G,4 | 
[V:1] _B>AB2 & GDG2 | 
[V:2] D4 & G,2G,2 | 
[V:1] c4 & zFF2- | 
[V:2] C3_B,/A,/ & A,2F,2 | 
[V:1] z4 & FE/D/E2 | 
[V:2] =B,4 & G,4 | 
[V:1] z4 & F4 | 
[V:2] C4 & F,4 | 
[V:1] f4 & A4 | 
[V:2] x4 & F,4 | 
[V:1] e2d2 & G2F2 | 
[V:2] x4 & C,2D,2 | 
[V:1] d2^c2 & E4 | 
[V:2] x4 & A,2A,2 | 
[V:1] d4 & D4 | 
[V:2] F4 & _B,3A, | 
[V:1] z4 & x4 | 
[V:2] E2D2 & G,2F,2 | 
[V:1] z4 & x4 | 
[V:2] D2^C2 & E,2E,2 | 
[V:1] z2d2 & F3G | 
[V:2] D4 & D,3E, | 
[V:1] d2d2 & A2G2 | 
[V:2] D4 & F,2G,2 | 
[V:1] c2A2 & zF/E/^F2 | 
[V:2] x4 & A,4 | 
[V:1] _B3A & G3D- | 
[V:2] x4 & G,4 | 
[V:1] G2G2 & DC_B,2 | 
[V:2] z2D2 & G,4 | 
[V:1] F4 & A,2A,2 | 
[V:2] D2D2 & D,3E, | 
[V:1] A,>_B,C2 & x4 | 
[V:2] C2A,2 & F,2F,2 | 
[V:1] _B,D>EF- & x4 | 
[V:2] _B,3A, & G,3A, | 
[V:1] FE/D/E2 & x4 | 
[V:2] G,4 & =B,2B,2 | 
[V:1] A3=B & F4 | 
[V:2] F,4 & C2F,2 | 
[V:1] c4 & F2E2 | 
[V:2] x4 & zG,A,2 | 
[V:1] d4 & D3E | 
[V:2] x4 & _B,3A,/G,/ | 
[V:1] c2_B2 & F2G2 | 
[V:2] x4 & A,2G,2 | 
[V:1] A2A2 & C4 | 
[V:2] A,3_B, & F,4 | 
[V:1] G3A & E3F | 
[V:2] C4 & C,4 | 
[V:1] _B2A2 & G2F2 | 
[V:2] D4 & G,2D,2 | 
[V:1] zGG2 & zEDC | 
[V:2] C2_B,2 & F,2G,2 | 
[V:1] z^F/E/F2 & D4 | 
[V:2] A,4 & (3:2:2D,2D,2 | 
[V:1] [M:3/2]G4G2 & D2E2G2 | 
[V:2] [M:3/2]G,6 & G,4G,2 | 
[V:1] d4d2 & F4D2 | 
[V:2] z4G,2 & _B,4B,2 | 
[V:1] d4d2 & G4G2 | 
[V:2] D4D2 & G,4G,2 | 
[V:1] d2>c2A2 & F4F2 | 
[V:2] D4D2 & D,2>E,2F,2 | 
[V:1] _B6 & D2G3F | 
[V:2] D6 & G,6 | 
[V:1] A4G2 & F4E2 | 
[V:2] C2A,2_B,2 & A,2F,2G,2 | 
[V:1] A6 & F4E2 | 
[V:2] C6 & F,6 | 
[V:1] c4d2 & C2F2D2 | 
[V:2] F6 & A,4_B,2 | 
[V:1] c4d2 & G2A3G | 
[V:2] E4D2 & C4_B,2 | 
[V:1] _B2c2A2 & G4^F2 | 
[V:2] D2C4 & G,2A,4 | 
[V:1] _B4B2 & G4G2 | 
[V:2] D4D2 & G,6 | 
[V:1] d2>c2_B2 & F4F2 | 
[V:2] D4D2 & _B,4B,2 | 
[V:1] A2>G2A2 & F4F2 | 
[V:2] C4A,2 & F,4F,2 | 
[V:1] G6 & D4E2 | 
[V:2] _B,2>A,2G,2 & G,2>A,2B,2 | 
[V:1] A4z2 & F2>E2D2 | 
[V:2] F,4G,2 & C4_B,2 | 
[V:1] c6 & C2E2F2 | 
[V:2] A,2>_B,2C2 & C2A,4 | 
[V:1] _B2A3G & G2F3E | 
[V:2] D4C2 & G,2D,2F,2 | 
[V:1] G4^F2 & D2>C2D2 | 
[V:2] _B,2A,4 & G,2D,4 | 
[V:1] G6 & _B,2_E4 | 
[V:2] G,6 & G,6 | 
[V:1] G6 & D6 |]  
[V:2] G,6 & G,6 |]  


